svg/result_cup2.svg

<ns0:svg xmlns:ns0="http://www.w3.org/2000/svg" width="100%" height="100%" viewBox="0 -1000 4004 5152" version="1.1" xml:space="preserve" style="fill:#b20dff;fill-rule:evenodd;clip-rule:evenodd;stroke-linejoin:round;stroke-miterlimit:2;"><ns0:clipPath id="_clip1"><ns0:rect x="2.314" y="0.526" width="4000" height="3125" /></ns0:clipPath><ns0:g clip-path="url(#_clip1)"><ns0:g><ns0:path d="M1008.4,347.933c-220.345,-62.04 -378.362,-24.315 -484.475,57.574c-124.013,95.702 -181.695,257.559 -181.695,420.473c0,155.691 80.622,340.22 214.654,484.791c124.684,134.487 294.311,233.735 481.849,246.952c44.619,176.169 136.318,333.643 260.906,458.231c162.891,162.891 381.996,269.562 625.593,288.288l0,233.965l-590.342,472.815l30.712,128.462c442.963,83.068 792.043,85.933 1275.34,-4.537l26.303,-120.796c-0,0 -114.14,-95.822 -245.398,-202.372c-131.519,-106.763 -279.983,-224.501 -342.452,-273.905l-0,-233.632c243.597,-18.726 462.702,-125.397 625.593,-288.288c124.588,-124.588 216.287,-282.062 260.905,-458.231c187.538,-13.217 357.166,-112.465 481.85,-246.952c134.032,-144.571 214.654,-329.1 214.654,-484.791c-0,-162.914 -57.682,-324.771 -181.695,-420.473c-106.114,-81.889 -264.131,-119.614 -484.475,-57.574l-0,-312.86c-0,-75.432 -59.477,-149.671 -178.613,-200.184c-176.297,-74.749 -495.672,-113.961 -815.303,-113.961c-319.63,0 -639.006,39.212 -815.302,113.961c-119.136,50.513 -178.613,124.752 -178.613,200.184l-0,312.86Zm529.955,2688.03l463.65,-366.976c69.211,55.417 204.331,163.245 327.182,259.173c51.238,40.009 100.362,77.907 141.422,109.401c-286.102,87.963 -628.339,93.951 -932.256,-1.598l0.002,0Zm1312.04,-3000.89l0,1278.2c0,234.033 -95.014,446.046 -248.525,599.557c-153.51,153.511 -365.524,248.525 -599.557,248.525c-234.032,0 -446.046,-95.014 -599.557,-248.525c-153.51,-153.511 -248.525,-365.524 -248.525,-599.557l0,-1278.2c0,-10.966 9.877,-18.33 20.783,-27.189c17.57,-14.271 41.024,-26.903 68.924,-38.732c163.882,-69.485 461.254,-102.39 758.375,-102.39c297.122,-0 594.494,32.905 758.376,102.39c27.899,11.829 51.354,24.461 68.923,38.732c10.906,8.859 20.783,16.223 20.783,27.189Zm141.337,1373.28c135.787,-20.005 257.143,-97.576 349.069,-196.73c107.139,-115.563 175.764,-261.189 175.764,-385.642c0,-117.237 -35.715,-236.151 -124.958,-305.021c-84.784,-65.43 -213.666,-81.093 -395.378,-20.56l-0,812.878c-0,32.064 -1.522,63.774 -4.497,95.075Zm-1983.33,-907.953c-181.712,-60.533 -310.594,-44.87 -395.379,20.56c-89.242,68.87 -124.958,187.784 -124.958,305.021c0,124.453 68.625,270.079 175.765,385.642c91.925,99.154 213.281,176.725 349.069,196.73c-2.976,-31.301 -4.497,-63.011 -4.497,-95.075l-0,-812.878Z" /></ns0:g></ns0:g></ns0:svg>

<?xml version="1.0" encoding="UTF-8" standalone="no"?>
<!DOCTYPE svg PUBLIC "-//W3C//DTD SVG 1.1//EN" "http://www.w3.org/Graphics/SVG/1.1/DTD/svg11.dtd">
<svg width="100%" height="100%" viewBox="0 0 4004 6152" version="1.1" xmlns="http://www.w3.org/2000/svg" xmlns:xlink="http://www.w3.org/1999/xlink" xml:space="preserve" xmlns:serif="http://www.serif.com/" style="fill-rule:evenodd;clip-rule:evenodd;stroke-linejoin:round;stroke-miterlimit:2;">
    <g transform="matrix(1,0,0,1,0,1500)">
        <g>
            <path d="M1008.4,347.933C788.055,285.893 630.038,323.618 523.925,405.507C399.912,501.209 342.23,663.066 342.23,825.98C342.23,981.671 422.852,1166.2 556.884,1310.77C681.568,1445.26 851.195,1544.51 1038.73,1557.72C1083.35,1733.89 1175.05,1891.37 1299.64,2015.95C1462.53,2178.85 1681.63,2285.52 1925.23,2304.24L1925.23,2538.21L1334.89,3011.02L1365.6,3139.48C1808.57,3222.55 2157.64,3225.42 2640.94,3134.95L2667.24,3014.15C2667.24,3014.15 2553.11,2918.33 2421.85,2811.78C2290.33,2705.02 2141.86,2587.28 2079.39,2537.87L2079.39,2304.24C2322.99,2285.52 2542.1,2178.85 2704.99,2015.95C2829.58,1891.37 2921.28,1733.89 2965.89,1557.72C3153.43,1544.51 3323.06,1445.26 3447.74,1310.77C3581.78,1166.2 3662.4,981.671 3662.4,825.98C3662.4,663.066 3604.72,501.209 3480.7,405.507C3374.59,323.618 3216.57,285.893 2996.23,347.933L2996.23,35.073C2996.23,-40.359 2936.75,-114.598 2817.61,-165.111C2641.32,-239.86 2321.94,-279.072 2002.31,-279.072C1682.68,-279.072 1363.31,-239.86 1187.01,-165.111C1067.87,-114.598 1008.4,-40.359 1008.4,35.073L1008.4,347.933L1008.4,347.933ZM1538.36,3035.96L2002.01,2668.99C2071.22,2724.4 2206.34,2832.23 2329.19,2928.16C2380.43,2968.17 2429.55,3006.07 2470.61,3037.56C2184.51,3125.52 1842.27,3131.51 1538.35,3035.96L1538.36,3035.96ZM2850.39,35.073L2850.39,1313.27C2850.39,1547.31 2755.38,1759.32 2601.87,1912.83C2448.36,2066.34 2236.35,2161.36 2002.31,2161.36C1768.28,2161.36 1556.27,2066.34 1402.76,1912.83C1249.25,1759.32 1154.23,1547.31 1154.23,1313.27L1154.23,35.073C1154.23,24.107 1164.11,16.743 1175.01,7.884C1192.58,-6.387 1216.04,-19.019 1243.94,-30.848C1407.82,-100.333 1705.19,-133.238 2002.31,-133.238C2299.43,-133.238 2596.81,-100.333 2760.69,-30.848C2788.59,-19.019 2812.04,-6.387 2829.61,7.884C2840.52,16.743 2850.39,24.107 2850.39,35.073ZM2991.73,1408.35C3127.52,1388.35 3248.88,1310.78 3340.8,1211.62C3447.94,1096.06 3516.57,950.434 3516.57,825.981C3516.57,708.744 3480.85,589.83 3391.61,520.96C3306.82,455.53 3177.94,439.867 2996.23,500.4L2996.23,1313.28C2996.23,1345.34 2994.71,1377.05 2991.73,1408.35ZM1008.4,500.4C826.69,439.867 697.808,455.53 613.023,520.96C523.781,589.83 488.065,708.744 488.065,825.981C488.065,950.434 556.69,1096.06 663.83,1211.62C755.755,1310.78 877.111,1388.35 1012.9,1408.35C1009.92,1377.05 1008.4,1345.34 1008.4,1313.28L1008.4,500.4Z" style="fill:rgb(178,13,255);"/>
        </g>
    </g>
</svg>
